svg/black/qiwi.svg

<svg xmlns="http://www.w3.org/2000/svg" width="32" height="32" viewBox="0 0 32 32">
  <path d="M16,32 C7.163444,32 0,24.836556 0,16 C0,7.163444 7.163444,0 16,0 C24.836556,0 32,7.163444 32,16 C32,24.836556 24.836556,32 16,32 Z M22.5900662,19.4450016 C22.5648121,19.2252044 22.4377524,18.7213182 22.1078707,18.5919311 C21.9425353,18.5272376 21.8028486,18.578671 21.7397133,18.6951997 C21.6379077,18.8764219 21.7140646,19.2252044 21.9046542,19.5358137 C22.0948491,19.8460211 22.2728116,20.0011248 22.3998713,20.0011248 C22.526931,20.0011248 22.640969,19.8460211 22.5900662,19.4450016 Z M20.8128089,20.3241906 C20.6095923,20.1433702 20.3811217,20.05296 20.1779051,20.05296 C20.0003372,20.05296 19.8606504,20.1172517 19.7714719,20.2337804 C19.5433958,20.5178694 19.6448068,21.0354175 20.0003372,21.345625 C20.152651,21.4878704 20.3811217,21.5654222 20.5969653,21.5654222 C20.8128089,21.5654222 21.0030039,21.475012 21.1174365,21.3327666 C21.3206531,21.0482759 21.2062204,20.6605166 20.8128089,20.3241906 Z M7,14.8943548 C7,19.8070443 10.910045,23.7891114 15.7343672,23.7891114 C17.016802,23.7891114 18.2862151,23.5435975 20.152651,23.5303373 C21.8158702,23.5303373 23.6440303,24.1250355 25.6497583,25.9352487 C25.8529749,26.1160691 26.1193267,25.8834135 25.9417588,25.6636162 C23.973912,23.1168613 22.1457519,22.6386918 20.3175918,22.224814 C18.0833931,21.720526 16.9406451,20.4535777 16.1408004,19.044384 C15.9884866,18.7598932 15.9123297,18.8117284 15.8993081,19.173771 C15.8849147,19.7064775 15.9232524,20.2393058 16.0137407,20.7641869 L15.7473889,20.7641869 C12.5606371,20.7641869 9.97051351,18.12662 9.97051351,14.8814964 C9.97051351,11.6363729 12.5606371,8.99880595 15.7469943,8.99880595 C18.933746,8.99880595 21.5238697,11.6363729 21.5238697,14.8814964 C21.5238697,15.114152 21.510848,15.3468076 21.4855939,15.5666049 C21.0539067,15.489053 20.2288079,15.4761947 19.6448068,15.5280298 C19.4289632,15.5537465 19.4542173,15.6570151 19.6195527,15.6831336 C21.5238697,16.0447744 22.8315585,17.247431 23.1361861,19.4321433 C23.1488132,19.4839785 23.212343,19.4968368 23.2379917,19.4582618 C24.0121877,18.12662 24.4691291,16.5619207 24.4691291,14.8943548 C24.4691291,9.98206713 20.5586895,6 15.7343672,6 C10.9104395,6 7,9.98166531 7,14.8943548 Z"/>
</svg>

<svg xmlns="http://www.w3.org/2000/svg" width="32" height="32"><path d="M16 32C7.163 32 0 24.837 0 16S7.163 0 16 0s16 7.163 16 16-7.163 16-16 16zm6.59-12.555c-.025-.22-.152-.724-.482-.853-.165-.065-.305-.013-.368.103-.102.181-.026.53.165.84.19.311.368.466.495.466s.241-.155.19-.556zm-1.777.88c-.203-.182-.432-.272-.635-.272a.489.489 0 0 0-.407.18c-.228.285-.126.802.23 1.113.152.142.38.22.596.22.216 0 .406-.091.52-.233.204-.285.09-.672-.304-1.009zM7 14.894c0 4.912 3.91 8.894 8.734 8.894 1.283 0 2.552-.245 4.419-.259 1.663 0 3.491.595 5.497 2.405.203.181.47-.052.292-.271-1.968-2.547-3.796-3.025-5.624-3.44-2.235-.503-3.377-1.77-4.177-3.18-.153-.284-.229-.232-.242.13a8.078 8.078 0 0 0 .115 1.59h-.267c-3.186 0-5.776-2.637-5.776-5.883C9.97 11.636 12.56 9 15.747 9c3.187 0 5.777 2.637 5.777 5.882 0 .233-.013.466-.038.686-.432-.078-1.257-.09-1.841-.039-.216.026-.19.129-.025.155 1.904.362 3.212 1.564 3.516 3.75.013.051.076.064.102.025a9.074 9.074 0 0 0 1.231-4.564C24.47 9.982 20.56 6 15.734 6 10.91 6 7 9.982 7 14.894z"/></svg>
